icon-themes/sifr_svg/cmd/sc_spacepara15.svg

<svg viewBox="0 0 16 16" xmlns="http://www.w3.org/2000/svg"><path d="m3.1914062 2c-.6243471.7255583-1.1403007 1.2335687-1.9101562 2.25-.1909501.19768-.28125.44055-.28125.75v.5859375.4140625h1c.2568899 0 .52846-.12983.71875-.3125l.28125-.5097656v5.6445316l-.28125-.509766c-.19029-.18267-.4618601-.3125-.71875-.3125h-1v.414062.585938c.070519.301308.0903.55232.28125.75.7698555 1.016431 1.2858089 1.524442 1.9101562 2.25h1.6445313l1.8828125-2.25c.19095-.19768.2812499-.44055.28125-.75v-.585938-.414062h-1c-.2568901 0-.5284601.12983-.71875.3125l-.28125.509766v-5.6445316l.28125.5097656c.1902899.18267.4623109.3277154.71875.3125h1v-.4140625-.5859375c-.0000001-.30945-.0903-.55232-.28125-.75l-1.8828125-2.25zm4.8085938 1v2h7v-2zm0 4v2h7v-2zm0 4v2h7v-2z" fill="#555753"/></svg>

<svg xmlns="http://www.w3.org/2000/svg" viewBox="0 0 16 16">
  <path
     style="fill:#555753"
     d="M 3.1914062,2 C 2.5670591,2.7255583 2.0511055,3.2335687 1.28125,4.25 1.0902999,4.44768 1,4.69055 1,5 V 5.5859375 6 H 2 C 2.2568899,6 2.52846,5.87017 2.71875,5.6875 L 3,5.1777344 V 10.822266 L 2.71875,10.3125 C 2.52846,10.12983 2.2568899,10 2,10 H 1 V 10.414062 11 c 0.070519,0.301308 0.0903,0.55232 0.28125,0.75 0.7698555,1.016431 1.2858089,1.524442 1.9101562,2.25 H 4.8359375 L 6.71875,11.75 C 6.9097,11.55232 6.9999999,11.30945 7,11 V 10.414062 10 H 6 C 5.7431099,10 5.4715399,10.12983 5.28125,10.3125 L 5,10.822266 V 5.1777344 L 5.28125,5.6875 C 5.4715399,5.87017 5.7435609,6.0152154 6,6 H 7 V 5.5859375 5 C 6.9999999,4.69055 6.9097,4.44768 6.71875,4.25 L 4.8359375,2 Z M 8,3 v 2 h 7 V 3 Z m 0,4 v 2 h 7 V 7 Z m 0,4 v 2 h 7 v -2 z"
     />
</svg>
